X: 1923
T: Vakt-i Subh Oldu
C: Hâfız Post
O: Turkey
F: http://compmusic.upf.edu/node/140
N: muhayyer--murabba--agircenber--vakt-i_subh--hafiz_post
N: makam= muhayyer
N: form= murabba
N: usul= agircenber = 24/2
M: 24/2
L: 1/16
K: C _2/4B ^3/4f  
Q: 1/4=20.25
%%MIDI tuningsystem comma53
g4a4 a4a4 g4^f4 g2a2g2a2 a8 a6z2 z2a4_1/4b2 b2a2g2f2  | \
w:   | 
g4a2g2 a4_1/4b4 z2c'4d'2 c'4b4 a8 b2c'2b4 c'2d'2c'2b2 d'2c'2b2c'4z4b2 c'2d'4c'4b4d'2 c'2b2a4 a4g4 a4a8a2g3^fg2a2g2  | 
w:   | 
_1/4b2a2g2^f2 g2c'2b2a2 b2a2g2f2 e2=f2e2d2 z2agf2g2 a8 a6z2 z2a4b2  | 
w:   | 
_1/4b2a2g2^f2 g4a2g2 a4b4 z2c'4d'2 c'4b4 a8 b2c'2b4 c'2d'2c'2b2  | 
w:   | 
d'2c'2_1/4b2c'4z4b2 c'2d'4c'4b4d'2 c'2b2a4 a4g4 a4a8a2g3^fg2a2g2 b2a2g2f2 g2c'2b2a2 b2a2g2f2 e2=f2e2d2 z2agf2g2 a8 a6z2  | 
w:   | 
a2g2=f2e4d2e2d2 c2c2d2d2 c2d2c2_1/4B2 z4c2d2 d2c2d2c2 B2A8B2c2B4c2d2c2 B2d2c2B2 c4z4 B2c2d4 c4B4 d2c2B2A4A4G4A4A8a3g^f2g2a8g4a4a4a4g4f4g2 a2g2a2a8a6z2z2 a4_1/4b2b2 a2g2f2g4a2g2a4b4z2 c'4d'2c'4b4a8b2  | 
w:   | 
c'2_1/4b4c'2 d'2c'2b2d'2 c'2b2c'4 z4b2c'2 d'4c'4 b4d'2c'2 b2a4a4g4a4a8a2g3^f g2a2g2b2 a2g2f2g2 c'2b2a2b2 a2g2f2e2 =f2e2d2z2 agf2g2a8a6z2z2 a4b2b2 a2g2^f2g4a2g2a4b4z2 c'4d'2c'4b4a8b2 c'2b4c'2 d'2c'2b2d'2 c'2b2c'4 z4b2c'2 d'4c'4 b4d'2c'2 b2a4a4g4a4a8a2g3f g2a2g2b2 a2g2f2g2 c'2b2a2b2 a2g2f2e2 =f2e2d2z2  | 
w:   | 
ag=f2g2a8a6z2a2 g2f2e4 d2e2d2c2 c2d2d2c2 d2c2_1/4B2z4c2d2d2  | 
w:   | 
c2d2c2_1/4B2 A8 B2c2B4 c2d2c2B2 d2c2B2c4z4B2 c2d4c4B4d2  | 
w:   | 
c2_1/4B2A4 A4G4 A4A8_7/8d'3c' _1/4b2d'2c'8b4 c'4c'4 c'4g8c'8d'3c' b2c'2b4 d'4d'3c' b2c'2b2d'2 c'4z4 c'2c'2c'4 d'4z2c'4d'2c'4 d'4c'4 d'2b2a2b2 c'2b4z4c'2d'2c'4d'2e'2d'4c'4c'4d'2c'2b2  | 
w:   | 
_1/4b2a2a2g2 _7/8d'3c'd'2e'2 d'3c'b2c'2 b2c'2d'2d'c' c'8 =d'4e'4 d'4e'4 e'4e'4  | 
w:   | 
d'4c'4 d'2e'2d'2e'2 e'8 e'2=f'2e'2d'2 e'3d'c'2d'2 c'2d'2e'4 z4d'2e'2 f'4e'2d'2  | 
w:   | 
e'2d'2d'2c'2 e'2d'2c'2d'4d'2z2c'2 d'2e'4d'2 c'2d'2c'2c'2 _1/4b2d'2c'2b2 c'4z4 b2c'2d'4  | 
w:   | 
c'4_1/4b4 c'2d'2c'bb4b4^a4b4b8b8b4d'4d'2 c'4d'2d'2  | \
w:   | 
c'4_1/4b2a2 b2a2g2z2 aba2b2c'2 d'2c'2d'2c'2 e'2d'2c'2e'2 d'2c'2b2a2 a4d'4 z4c'2d'2  | 
w:   | 
e'4d'2c'2 d'2c'2d'2c'2 _1/4b2d'2c'2b2 c'4c'2z2 b2c'2d'4 c'2b2b4 a4b8z4  | 
w:   | 
a2_1/4b2c'4 d'2c'2b2b2 c'2b2a2a4a4g4a4a8a3g^f2g2a8g4a4a4a4g4f4g2 a2g2a2a8a6z2z2 a4b2b2 a2g2f2g4a2g2a4b4z2 c'4d'2c'4b4a8b2 c'2b4c'2 d'2c'2b2d'2 c'2b2c'4  | 
w:   | 
z4_1/4b2c'2 d'4c'4 b4d'2c'2 b2a4a4g4a4a8a2g3^f g2a2g2b2  | 
w:   | 
a2g2^f2g2 c'2_1/4b2a2b2 a2g2f2e2 =f2e2d2z2 agf2g2a8a6z2z2 a4b2b2  | 
w:   | 
a2g2^f2g4a2g2a4_1/4b4z2 c'4d'2c'4b4a8b2 c'2b4c'2 d'2c'2b2d'2  | 
w:   | 
c'2_1/4b2c'4 z4b2c'2 d'4c'4 b4d'2c'2 b2a4a4g4a4a8a2g3^f  | \
w:   | 
g2a2g2_1/4b2 a2g2^f2g2 c'2b2a2b2 a2g2f2e2 =f2e2d2z2 agf2g2a8a6z2a2  | 
w:   | 
g2=f2e4 d2e2d2c2 c2d2d2c2 d2c2_1/4B2z4c2d2d2 c2d2c2B2 A8 B2c2B4  | 
w:   | 
c2d2c2_1/4B2 d2c2B2c4z4B2 c2d4c4B4d2 c2B2A4 A4G4 A4A8a3g ^f2g2a8g4 a4a4 a4g4 f4g2a2 g2a2a8a6z2z2a4_1/4b2b2a2 g2f2g4 a2g2a4 b4z2c'4d'2c'4 b4a8b2c'2  | 
w:   | 
_1/4b4c'2d'2 c'2b2d'2c'2 b2c'4z4b2c'2d'4c'4b4d'2c'2b2 a4a4 g4a4  | 
w:   | 
a8 a2g3^fg2 a2g2_1/4b2a2 g2f2g2c'2 b2a2b2a2 g2f2e2=f2 e2d2z2ag f2g2a8a6z2z2a4b2b2a2 g2^f2g4 a2g2a4 b4z2c'4d'2c'4 b4a8b2c'2 b4c'2d'2 c'2b2d'2c'2 b2c'4z4b2c'2d'4c'4b4d'2c'2b2 a4a4  | 
w:   | 
g4a4 a8 a2g3^fg2 a2g2_1/4b2a2 g2f2g2c'2 b2a2b2a2 g2f2e2=f2 e2d2z2ag  | 
w:   | 
=f2g2a8a6z2a2g2 f2e4d2 e2d2c2c2 d2d2c2d2 c2_1/4B2z4 c2d2d2c2  | 
w:   | 
d2c2_1/4B2A8B2 c2B4c2 d2c2B2d2 c2B2c4 z4B2c2 d4c4 B4d2c2  | 
w:   | 
_1/4B2A4A4G4A4A8_7/8d'3c'_1/4b2 d'2c'8b4c'4c'4c'4g8c'8d'3c'b2 c'2b4d'4d'3c'b2 c'2b2d'2c'4z4c'2 c'2c'4d'4z2c'4  | 
w:   | 
_7/8d'2c'4d'4c'4d'2 _1/4b2a2b2c'2 b4z4 c'2d'2c'4 d'2e'2d'4 c'4c'4 d'2c'2b2b2  | 
w:   | 
a2a2g2_7/8d'3c'd'2e'2d'3c'_1/4b2c'2b2 c'2d'2d'c'c'8=d'4e'4d'4e'4e'4e'4d'4c'4d'2 e'2d'2e'2e'8e'2 =f'2e'2d'2e'3d'c'2d'2c'2 d'2e'4z4d'2e'2f'4e'2d'2e'2  | 
w:   | 
d'2d'2c'2e'2 d'2c'2d'4 d'2z2c'2d'2 e'4d'2c'2 d'2c'2c'2_1/4b2 d'2c'2b2c'4z4b2 c'2d'4c'4b4c'2 d'2c'bb4 b4^a4 b4b8b8b4 d'4d'2c'4d'2d'2c'4b2=a2b2 a2g2z2ab a2b2c'2d'2 c'2d'2c'2e'2 d'2c'2e'2d'2 c'2b2a2a4d'4z4c'2d'2e'4d'2c'2d'2 c'2d'2c'2b2 d'2c'2b2c'4c'2z2b2 c'2d'4c'2 b2b4a4b8z4a2  | 
w:   | 
_1/4b2c'4d'2 c'2b2b2c'2 b2a2a4 a4g4 a4a8a3g ^f2g2a8|
w:   | 


